X:1
T:Barry Holly and and a played in And in An the Barlie Marsh Hornpipe, The
R:hornpipe
H:Also p


*****************************


10300 2 1.2943552 

<start
D:Patrie Horne to be Pader Polkand and and be Pates of the Barle
R:hornpipe
D:Patrie Horne Horne
R


*****************************


10400 2 1.7233489 

<start
DE DE|FDDE D2D2|
(3FED FD (3FED (3FED | EGFG ABcA | BAGB AGFG |
A2AB cAGF | GBcd edBG | AGFG A2 (3


*****************************


10500 2 2.291836 

<start
A:Prionsion 2
Z:id:hn-hornpipe-27
M:C|
K:G
BA|GBdB dBGB|cAFA G2Bc|dBGB A2GA|
BcdB AGFA|dBGB A2GA|B


*****************************


10600 2 0.8783033 

<start
DE DE | DEDE D2 (3DEF | GBAB A2 (3Bcd | (3efg (3ded (3Bcd (3efg | (3efg (3def g2 (3efg |
a2 (3gab 


*****************************


10700 2 1.4791119 

<start
D:Paddy McGolly & Cally & Marsh Connpel
Z:id:hn-hornpipe-33
M:C|
K:G
BA|GBdB cBAG|FGAB cAFA|d2ed c


*****************************


10800 2 1.1958364 

<start
DE FG|ABcd ecAG|FGAB cAFA|c2cA G2:|
|:Bc|dg~g2 gfed|cBcd efge|fded cBcB|cBce dBGB|cBcA G2:|
|:Bc|d


*****************************


10900 2 1.0166526 

<start
D:Parick and and was the was the was the was the was the was the was the was the was the woun the 


*****************************


11000 2 1.1398387 

<start
D:Parick Hornpipe, The
R:hornpipe
Z:id:hn-hornpipe-44
M:C|
K:D
AF|DAFA d2dc|BAFA d2dc|BAFA D2FA|dc


*****************************


11100 2 0.7242739 

<start
Z:id:hn-hornpipe-55
M:C|
K:G
AB|cA (3Bcd ecAG|FGAF G2FG|AGFG A2:|
|:de|fdcB AGFG|AGAB cdec|dcAG FG


*****************************


11200 2 1.0361358 

<start
D:Paddy Bergin: Fander's Fand and was The
R:hornpipe
Z:id:hn-hornpipe-66
M:C|
K:G
(3DEF|GBdB dBGB|


*****************************


11300 2 0.2668454 

<start
D:Padraigion Hornpipe
R:hornpipe
D:Paddy Hornpipe
R:hornpipe
D:Sean Hornpipe
R:hornpipe
D:Padraigh


*****************************


11400 2 1.7922614 

<start
D:Sean Bergin: Fean the Bornpipe, The
R:hornpipe
Z:id:hn-hornpipe-70
M:C|
K:Ador
AG|ABAG ABcA|BGBd


*****************************


11500 2 1.2508042 

<start
D:Paddy McGrolan: The Borner Branes
Z:id:hn-hornpipe-77
M:C|
K:G
(3ABc|dg~g2 gdBd|gfed cBAG|AGAB c


*****************************


11600 2 0.7700061 

<start
D:Paddy Glackin: In the Borne
R:hornpipe
D:Paddy Glackin: In the Borne
R:hornpipe
D:Sean Hill & Ta


*****************************


11700 2 0.7600737 

<start
D:Paddy Glackin: The Fill of the Baney, The
R:hornpipe
D:Sean Hornpipe, The
R:hornpipe
D:Sean O'Co


*****************************


11800 2 1.075336 

<start
D:Jon Hornpipe, The
R:hornpipe
D:John Hornpipe, The
R:hornpipe
H:Also played in A, #89
Z:id:hn-hor


*****************************


11900 2 1.0507084 

<start
A:Provencionse
Z:id:hn-jig-2
M:6/8
K:G
BG|:AG AB AG|AB AG Ad|cA AG Ad|
ed cd cB|cA Ac (3Bcd|
edc B


*****************************


12000 2 1.6040959 

<start
